X:69
T:Dr. Taylor
R:Reel
O:Ireland
B:O'Neill's 1359
S:O'Neill's 1359
Z:Transcription:Trish O'Neil, minor arr., chords:Mike Long
M:C|
L:1/8
K:G
"G"G2FG "C"EGDF|"G"G2Bd "D"cBAF|"G"G2FG "C"EGDc|"C"(3(Bcd) gB "D"cBAF|\
"G"G2FG "C"EGDF|
"G"G2Bd "D"cBAF|"G"GFGA "C"(3(Bcd) ef|"D"gdcA "G"BGG2|]\
"G"gdBd "C"edBd|"C"cABG "D"AGEG|
"G"(~gfg)d "C"edBd|"D"dedc "G"BGGz|\
"G"(3(gfe) fd "C"edBd|"C"(3(cBA) BG "D"AGEG|"G"(3(DEF) GA "C"(3(Bcd) ef|"D"gbaf gedB|]
